X: 10202
T: BUONAPARTE'S GRAND MARCH
C:
%R: march
B: Elias Howe "The Musician's Companion" Part 1 1842 p.20,21 #2
S: http://imslp.org/wiki/The_Musician's_Companion_(Howe,_Elias)
Z: 2015 John Chambers <jc:trillian.mit.edu>
M: C
L: 1/8
K: D
% - - - - - - - - - - - - - - - - - - - - - - - - -
A>A |\
d2A>A e2A>A | f2~f>g a2a>g |\
f2f2 e2e2 | f>ga>f d2A>A |\
d2A>A e2A>A | f2f>g a2a>g |\
f2f2 e>de>f |
d2d>d d2 :: f>f |\
a2f>f a2f>f | (ag).b.a f2e>e |\
g2e>e g2e>e | (gf).a.f d2e>e |\
f2a>a (ba).g.f | e2e>e e2A>A |
d2A>A e2A>A | f2f>g a2a>g |\
f2f2 e>de>f | d2d>d d2z>b |\
a2d>d d2z>b | a2d>d d2z>b |\
(3(aga) (3(bag) f2Te2 | d2d>d d2 :|
% - - - - - - - - - - - - - - - - - - - - - - - - -


